X:1
T:Title
%%score 1 2
L:1/8
Q:1/4=90
M:4/4
K:F
V:1 treble nm="Strings 1, Treble"
V:2 bass nm="Strings 1, Bass"
V:1
 [FA]3 [Ac] [FA]F[GB][FA] | [EG]6 z2 | [EG]3 [Ec] [Ec][EG][FA][GB] | [FA]6 z2 | %4
w: 1.~Sav ior,~ guide~ my~ lit tle~|feet~|In~ the~ path~ which~ Thou~ has~|trod;~|
 [Ac]3 [Ac] [Ac][FA][FB][Fc] | [Fd]6 z2 | [Fc]3 [Fc] [Ec][GB][FA][EG] | F6 z2 | %8
w: Ev er~ keep~ me~ all~ com|plete~|In~ the~ liv ing~ church~ of~|God.~|
 [EG]3 [EG] [EG][Ec][GB][EG] | [FA]6 z2 | [EG]3 [EG] [EG][Ec][Ge][Fd] | [Ec]4 [GB]2 z2 | %12
w: ||||
 [FA]3 [Ac] [Ac][FA][FB][Fc] | [Fd]6 z2 | [Fc]3 [Fc] [Ec][GB][FA][EG] | F6 z2 |] %16
w: ||||
V:2
 [F,C]3 [F,C] [F,C][F,A,][E,C][F,C] | [C,C]6 z2 | [C,C]3 [C,G,] [C,G,][C,C][C,C][C,C] | [F,C]6 z2 | %4
 [F,C]3 [F,C] [F,C][_E,C][D,B,][C,A,] | [B,,B,]6 z2 | [C,A,]3 [C,A,] [C,G,][C,C][C,C][C,B,] | %7
 [F,A,]6 z2 | [C,C]3 [C,C] [C,C][C,G,][C,C][C,C] | [F,C]6 z2 | %10
 [G,C]3 [G,C] [G,C][G,C][G,C][G,=B,] | [C,C]6 z2 | [F,C]3 [F,C] [F,C][_E,C][D,B,][C,A,] | %13
 [B,,B,]6 z2 | [C,A,]3 [C,A,] [C,G,][C,C][C,C][C,B,] | [F,,F,A,]6 z2 |] %16

